src/assets/sponsors/prefect.svg

<svg xmlns="http://www.w3.org/2000/svg" class="sponsor-icon" width="664" height="82" fill="none" style="width:196px" viewBox="0 0 664 82"><path class="sponsor-name" fill="#fff" fill-rule="evenodd" d="M522.766 81.2183c-21.66 0-37.931-16.8143-37.931-39.4576s16.271-39.45766 37.931-39.45766c18.642 0 31.573 10.87326 34.913 26.79086h-15.517c-2.909-6.2774-8.836-11.7701-19.396-11.7701-12.716 0-22.63 10.3128-22.63 24.4369 0 14.124 9.914 24.4368 22.63 24.4368 10.56 0 16.487-5.4927 19.396-11.77h15.517c-3.34 15.9175-16.271 26.7908-34.913 26.7908ZM3.40918 79.4811V3.76335H37.1577c5.4084 0 10.1678 1.00957 14.2782 3.02871 4.1104 1.94702 7.2833 4.79544 9.5188 8.54524 2.3076 3.6778 3.4614 7.9324 3.4614 12.7639 0 4.9757-1.1538 9.3385-3.4614 13.0883-2.2355 3.6778-5.4084 6.5262-9.5188 8.5453-4.1104 2.0192-8.8338 3.0287-14.1701 3.0287H19.5262v26.7176H3.40918ZM34.3453 39.3507c2.596 0 4.9036-.4327 6.9228-1.298 2.0191-.9375 3.5695-2.2355 4.6512-3.8941C47.0731 32.5 47.65 30.4809 47.65 28.1012c0-2.1634-.5769-4.0743-1.7307-5.7329-1.0817-1.6586-2.6321-2.9206-4.6512-3.7859-2.0192-.9375-4.3268-1.4062-6.9228-1.4062H19.5262v22.1745h14.8191ZM205.852 3.76335V79.4811h57.005V66.0682h-40.888V47.1388h30.936V33.9423h-30.936V17.1762h40.888V3.76335h-57.005ZM394.933 79.4811V3.76335h57.005V17.1762h-40.887v16.7661h30.936v13.1965h-30.936v18.9294h40.887v13.4129h-57.005Zm216.458 0V17.1762h-25.96V3.76335h68.254V17.1762h-26.069v62.3049h-16.225ZM101.953 3.76335V79.4811h16.117V50.6002h13.846c3.173 0 5.769.3966 7.788 1.1898 2.019.7933 3.569 2.0552 4.651 3.7859 1.082 1.7307 1.839 4.0743 2.272 7.0309l2.271 16.8743h17.307l-3.137-18.1723c-.649-3.7498-1.803-6.7064-3.461-8.8698-1.659-2.1633-3.822-3.7137-6.49-4.6512-2.596-.9375-5.878-1.4783-9.844-1.6225v-3.4614c3.894-.3606 7.392-1.0817 10.493-2.1634 3.1-1.1538 5.733-3.0647 7.896-5.7329 2.163-2.7402 3.245-6.418 3.245-11.0331 0-3.9662-1.046-7.4636-3.137-10.4924-2.019-3.0287-4.976-5.37231-8.87-7.03088-3.894-1.65858-8.473-2.48787-13.737-2.48787h-37.21Zm42.835 31.15245c-2.164 1.6586-5.084 2.4879-8.762 2.4879H118.07V17.1762h17.956c3.678 0 6.598.8654 8.762 2.596 2.163 1.7307 3.245 4.2186 3.245 7.4636 0 3.3893-1.082 5.9493-3.245 7.68Zm161.585 45.3749V27.7533c0-13.2298 10.725-23.95462 23.955-23.95462h27.166V17.6604h-26.479c-4.41 0-7.985 3.5749-7.985 7.9848v10.8246h27.616v13.9735H323.03v29.8474h-16.657Z" clip-rule="evenodd"/></svg>

<svg width="664" height="82" viewBox="0 0 664 82" fill="none" xmlns="http://www.w3.org/2000/svg" id="sponsor-icon" style="width: 196px;">
<path fill-rule="evenodd" clip-rule="evenodd" d="M522.766 81.2183C501.106 81.2183 484.835 64.404 484.835 41.7607C484.835 19.1174 501.106 2.30304 522.766 2.30304C541.408 2.30304 554.339 13.1763 557.679 29.0939H542.162C539.253 22.8165 533.326 17.3238 522.766 17.3238C510.05 17.3238 500.136 27.6366 500.136 41.7607C500.136 55.8847 510.05 66.1975 522.766 66.1975C533.326 66.1975 539.253 60.7048 542.162 54.4275H557.679C554.339 70.345 541.408 81.2183 522.766 81.2183ZM3.40918 79.4811V3.76335H37.1577C42.5661 3.76335 47.3255 4.77292 51.4359 6.79206C55.5463 8.73908 58.7192 11.5875 60.9547 15.3373C63.2623 19.0151 64.4161 23.2697 64.4161 28.1012C64.4161 33.0769 63.2623 37.4397 60.9547 41.1895C58.7192 44.8673 55.5463 47.7157 51.4359 49.7348C47.3255 51.754 42.6021 52.7635 37.2658 52.7635H19.5262V79.4811H3.40918ZM34.3453 39.3507C36.9413 39.3507 39.2489 38.918 41.2681 38.0527C43.2872 37.1152 44.8376 35.8172 45.9193 34.1586C47.0731 32.5 47.65 30.4809 47.65 28.1012C47.65 25.9378 47.0731 24.0269 45.9193 22.3683C44.8376 20.7097 43.2872 19.4477 41.2681 18.5824C39.2489 17.6449 36.9413 17.1762 34.3453 17.1762H19.5262V39.3507H34.3453ZM205.852 3.76335V79.4811H262.857V66.0682H221.969V47.1388H252.905V33.9423H221.969V17.1762H262.857V3.76335H205.852ZM394.933 79.4811V3.76335H451.938V17.1762H411.051V33.9423H441.987V47.1388H411.051V66.0682H451.938V79.4811H394.933ZM611.391 79.4811V17.1762H585.431V3.76335H653.685V17.1762H627.616V79.4811H611.391ZM101.953 3.76335V79.4811H118.07V50.6002H131.916C135.089 50.6002 137.685 50.9968 139.704 51.79C141.723 52.5833 143.273 53.8452 144.355 55.5759C145.437 57.3066 146.194 59.6502 146.627 62.6068L148.898 79.4811H166.205L163.068 61.3088C162.419 57.559 161.265 54.6024 159.607 52.439C157.948 50.2757 155.785 48.7253 153.117 47.7878C150.521 46.8503 147.239 46.3095 143.273 46.1653V42.7039C147.167 42.3433 150.665 41.6222 153.766 40.5405C156.866 39.3867 159.499 37.4758 161.662 34.8076C163.825 32.0674 164.907 28.3896 164.907 23.7745C164.907 19.8083 163.861 16.3109 161.77 13.2821C159.751 10.2534 156.794 7.90979 152.9 6.25122C149.006 4.59264 144.427 3.76335 139.163 3.76335H101.953ZM144.788 34.9158C142.624 36.5744 139.704 37.4037 136.026 37.4037H118.07V17.1762H136.026C139.704 17.1762 142.624 18.0416 144.788 19.7722C146.951 21.5029 148.033 23.9908 148.033 27.2358C148.033 30.6251 146.951 33.1851 144.788 34.9158ZM306.373 80.2907V27.7533C306.373 14.5235 317.098 3.79868 330.328 3.79868H357.494V17.6604H331.015C326.605 17.6604 323.03 21.2353 323.03 25.6452V36.4698H350.646V50.4433H323.03V80.2907H306.373Z" fill="white"/>
</svg>
